src/images/bg/train/main-pusher.svg

<svg fill="none" height="50" viewBox="0 0 211 50" width="211" xmlns="http://www.w3.org/2000/svg" xmlns:xlink="http://www.w3.org/1999/xlink"><linearGradient id="a" gradientUnits="userSpaceOnUse" x1="105.381" x2="105.886" y1="20.821" y2="44.8547"><stop offset="0"/><stop offset="1" stop-color="#b07e6e" stop-opacity="0"/></linearGradient><linearGradient id="b" gradientUnits="userSpaceOnUse" x1="105.448" x2="105.951" y1="19.8733" y2="43.927"><stop offset=".3" stop-color="#e3cfcc"/><stop offset=".94" stop-color="#b07e6e"/></linearGradient><linearGradient id="c"><stop offset="0" stop-color="#dabdb9"/><stop offset=".53" stop-color="#d8bbb7"/><stop offset=".72" stop-color="#d1b5b1"/><stop offset=".85" stop-color="#c6aba7"/><stop offset=".88" stop-color="#c2a8a4"/><stop offset=".89" stop-color="#b79d98"/><stop offset=".91" stop-color="#9e847d"/></linearGradient><radialGradient id="d" cx="0" cy="0" gradientTransform="matrix(7.25213028 .20117315 -.20117315 7.25213028 202.893 20.3131)" gradientUnits="userSpaceOnUse" r="1" xlink:href="#c"/><radialGradient id="e" cx="0" cy="0" gradientTransform="matrix(110.3654987 7.71750747 -7.71750747 110.3654987 -10543 8201.07)" gradientUnits="userSpaceOnUse" r="1" xlink:href="#c"/><linearGradient id="f" gradientUnits="userSpaceOnUse" x1="108.885" x2="108.9" y1="22.6198" y2="26.1294"><stop offset="0" stop-color="#591c16"/><stop offset=".06" stop-color="#5d1d17"/><stop offset=".13" stop-color="#6a211a"/><stop offset=".19" stop-color="#7e261e"/><stop offset=".24" stop-color="#922c23"/><stop offset=".47" stop-color="#bf3029"/><stop offset="1" stop-color="#571210"/></linearGradient><path clip-rule="evenodd" d="m12.7642 14.3947c2.2552.061 4.4731.5903 6.5128 1.5544s3.8566 2.3418 5.3353 4.0457l167.5397-.8852c.943-1.2665 2.153-2.3099 3.544-3.0564 1.392-.7464 2.93-1.1774 4.507-1.2625 2.561.0077 5.018 1.0157 6.846 2.8089 1.829 1.7932 2.884 4.2297 2.942 6.7901s-.887 5.042-2.633 6.9156c-1.746 1.8737-4.155 2.9911-6.713 3.1141-2.897.007-5.704-1.0055-7.93-2.8602l-167.7674-1.306c-1.4383 1.7563-3.2326 3.1877-5.2646 4.1998-2.0319 1.0122-4.2554 1.5822-6.5237 1.6722-1.4257.1695-2.8709.0565-4.2529-.3325-1.38204-.389-2.67394-1.0463-3.80192-1.9346-1.12798-.8882-2.06996-1.99-2.77216-3.2423s-1.15084-2.6306-1.32036-4.0563c-.169514-1.4257-.056595-2.8708.33238-4.2528.38898-1.382 1.04634-2.6739 1.9346-3.8019.88825-1.128 1.98999-2.07 3.24229-2.7722s2.63063-1.1508 4.05637-1.3203l.5243-.0437.6141-.0372z" fill="url(#a)" fill-rule="evenodd"/><path clip-rule="evenodd" d="m12.8311 13.4371c2.2571.0606 4.4766.5917 6.5166 1.5594 2.04.9678 3.8555 2.3508 5.3302 4.0606l167.5401-.8951c.946-1.2631 2.156-2.3035 3.547-3.048s2.928-1.1749 4.504-1.261c2.561.0077 5.017 1.0156 6.846 2.8088 1.828 1.7932 2.884 4.2298 2.942 6.7902.057 2.5604-.888 5.042-2.634 6.9157s-4.154 2.991-6.713 3.1139c-2.895-.0023-5.699-1.0136-7.929-2.8601l-167.7665-1.326c-1.4357 1.7593-3.2294 3.1927-5.2619 4.2051-2.0326 1.0125-4.2573 1.5807-6.5264 1.6669-1.439.1988-2.9033.1089-4.30714-.2647-1.40386-.3737-2.71918-1.0233-3.86903-1.9112-1.14984-.8878-2.11118-1.9959-2.82778-3.2596s-1.1741-2.6577-1.345743-4.1002c-.171645-1.4426-.054005-2.9049.346063-4.3014.40006-1.3966 1.07453-2.6993 1.98394-3.8322.90941-1.1328 2.03556-2.073 3.31256-2.7656s2.67921-1.1237 4.12473-1.2681l.525-.0535c.1996.014.4139-.0412.6148-.0472z" fill="url(#b)" fill-rule="evenodd"/><path d="m200.037 30.9285c3.994.2793 7.459-2.7323 7.738-6.7266s-2.732-7.4588-6.727-7.7381c-3.994-.2793-7.458 2.7323-7.738 6.7266-.279 3.9943 2.733 7.4588 6.727 7.7381z" fill="url(#d)"/><path d="m12.265 31.2811c3.9943.2793 7.4588-2.7323 7.7381-6.7267.2793-3.9943-2.7323-7.4587-6.7266-7.738-3.99434-.2793-7.45879 2.7323-7.7381 6.7266s2.7323 7.4587 6.7266 7.7381z" fill="url(#e)"/><path clip-rule="evenodd" d="m191.126 21.6042.119 5.1709-164.5249.0635-.1759-4.2226z" fill="url(#f)" fill-rule="evenodd"/></svg>

<svg width="211" height="50" viewBox="0 0 211 50" fill="none" xmlns="http://www.w3.org/2000/svg">
<path fill-rule="evenodd" clip-rule="evenodd" d="M12.7642 14.3947C15.0194 14.4557 17.2373 14.985 19.277 15.9491C21.3167 16.9132 23.1336 18.2909 24.6123 19.9948L192.152 19.1096C193.095 17.8431 194.305 16.7997 195.696 16.0532C197.088 15.3068 198.626 14.8758 200.203 14.7907C202.764 14.7984 205.221 15.8064 207.049 17.5996C208.878 19.3928 209.933 21.8293 209.991 24.3897C210.049 26.9501 209.104 29.4317 207.358 31.3053C205.612 33.179 203.203 34.2964 200.645 34.4194C197.748 34.4264 194.941 33.4139 192.715 31.5592L24.9476 30.2532C23.5093 32.0095 21.715 33.4409 19.683 34.453C17.6511 35.4652 15.4276 36.0352 13.1593 36.1252C11.7336 36.2947 10.2884 36.1817 8.9064 35.7927C7.52436 35.4037 6.23246 34.7464 5.10448 33.8581C3.9765 32.9699 3.03452 31.8681 2.33232 30.6158C1.63012 29.3635 1.18148 27.9852 1.01196 26.5595C0.842446 25.1338 0.955365 23.6887 1.34434 22.3067C1.73332 20.9247 2.39068 19.6328 3.27894 18.5048C4.16719 17.3768 5.26893 16.4348 6.52123 15.7326C7.77353 15.0304 9.15186 14.5818 10.5776 14.4123L11.1019 14.3686L11.716 14.3314L12.7642 14.3947Z" fill="url(#paint0_linear)"/>
<path fill-rule="evenodd" clip-rule="evenodd" d="M12.8311 13.4371C15.0882 13.4977 17.3077 14.0288 19.3477 14.9965C21.3877 15.9643 23.2032 17.3473 24.6779 19.0571L192.218 18.162C193.164 16.8989 194.374 15.8585 195.765 15.114C197.156 14.3695 198.693 13.9391 200.269 13.853C202.83 13.8607 205.286 14.8686 207.115 16.6618C208.943 18.455 209.999 20.8916 210.057 23.452C210.114 26.0124 209.169 28.494 207.423 30.3677C205.677 32.2414 203.269 33.3587 200.71 33.4816V33.4816C197.815 33.4793 195.011 32.468 192.781 30.6215L25.0145 29.2955C23.5788 31.0548 21.7851 32.4882 19.7526 33.5006C17.72 34.5131 15.4953 35.0813 13.2262 35.1675C11.7872 35.3663 10.3229 35.2764 8.91906 34.9028C7.5152 34.5291 6.19988 33.8795 5.05003 32.9916C3.90019 32.1038 2.93885 30.9957 2.22225 29.732C1.50565 28.4683 1.04815 27.0743 0.876507 25.6318C0.704862 24.1892 0.822502 22.7269 1.22257 21.3304C1.62263 19.9338 2.2971 18.6311 3.20651 17.4982C4.11592 16.3654 5.24207 15.4252 6.51907 14.7326C7.79607 14.04 9.19828 13.6089 10.6438 13.4645L11.1688 13.411C11.3684 13.425 11.5827 13.3698 11.7836 13.3638L12.8311 13.4371Z" fill="url(#paint1_linear)"/>
<path d="M200.037 30.9285C204.031 31.2078 207.496 28.1962 207.775 24.2019C208.054 20.2076 205.043 16.7431 201.048 16.4638C197.054 16.1845 193.59 19.1961 193.31 23.1904C193.031 27.1847 196.043 30.6492 200.037 30.9285Z" fill="url(#paint2_radial)"/>
<path d="M12.265 31.2811C16.2593 31.5604 19.7238 28.5488 20.0031 24.5544C20.2824 20.5601 17.2708 17.0957 13.2765 16.8164C9.28216 16.5371 5.81771 19.5487 5.5384 23.543C5.25909 27.5373 8.2707 31.0017 12.265 31.2811Z" fill="url(#paint3_radial)"/>
<path fill-rule="evenodd" clip-rule="evenodd" d="M191.126 21.6042L191.245 26.7751L26.7201 26.8386L26.5442 22.616L191.126 21.6042Z" fill="url(#paint4_linear)"/>
<defs>
<linearGradient id="paint0_linear" x1="105.381" y1="20.821" x2="105.886" y2="44.8547" gradientUnits="userSpaceOnUse">
<stop/>
<stop offset="1" stop-color="#B07E6E" stop-opacity="0"/>
</linearGradient>
<linearGradient id="paint1_linear" x1="105.448" y1="19.8733" x2="105.951" y2="43.927" gradientUnits="userSpaceOnUse">
<stop offset="0.3" stop-color="#E3CFCC"/>
<stop offset="0.94" stop-color="#B07E6E"/>
</linearGradient>
<radialGradient id="paint2_radial" cx="0" cy="0" r="1" gradientUnits="userSpaceOnUse" gradientTransform="translate(202.893 20.3131) rotate(1.58897) scale(7.25492)">
<stop stop-color="#DABDB9"/>
<stop offset="0.53" stop-color="#D8BBB7"/>
<stop offset="0.72" stop-color="#D1B5B1"/>
<stop offset="0.85" stop-color="#C6ABA7"/>
<stop offset="0.88" stop-color="#C2A8A4"/>
<stop offset="0.89" stop-color="#B79D98"/>
<stop offset="0.91" stop-color="#9E847D"/>
</radialGradient>
<radialGradient id="paint3_radial" cx="0" cy="0" r="1" gradientUnits="userSpaceOnUse" gradientTransform="translate(-10543 8201.07) rotate(4) scale(110.635)">
<stop stop-color="#DABDB9"/>
<stop offset="0.53" stop-color="#D8BBB7"/>
<stop offset="0.72" stop-color="#D1B5B1"/>
<stop offset="0.85" stop-color="#C6ABA7"/>
<stop offset="0.88" stop-color="#C2A8A4"/>
<stop offset="0.89" stop-color="#B79D98"/>
<stop offset="0.91" stop-color="#9E847D"/>
</radialGradient>
<linearGradient id="paint4_linear" x1="108.885" y1="22.6198" x2="108.9" y2="26.1294" gradientUnits="userSpaceOnUse">
<stop stop-color="#591C16"/>
<stop offset="0.06" stop-color="#5D1D17"/>
<stop offset="0.13" stop-color="#6A211A"/>
<stop offset="0.19" stop-color="#7E261E"/>
<stop offset="0.24" stop-color="#922C23"/>
<stop offset="0.47" stop-color="#BF3029"/>
<stop offset="1" stop-color="#571210"/>
</linearGradient>
</defs>
</svg>
